X: 17576
T: Hob-y- Dylif
R: jig
M: 6/8
K: Gmajor
B/c/|dBe dBG|GAG BAG|G>AG BAG|Bdd d2:|
|:e/f/|g2g gag|f2f fgf|e2e efg|Be^d e3|dcB efg|
fag fed|gde d2 c|Bdc B2 A|G>AG BAG|(B/c/d).d d2:|

